assets/azureaksistio/original.svg

<svg height="18" viewBox="0 0 18 18" width="18" xmlns="http://www.w3.org/2000/svg" xmlns:xlink="http://www.w3.org/1999/xlink"><linearGradient id="a" gradientUnits="userSpaceOnUse" x1="-1.024" x2="15.931" y1="19.038" y2="2.083"><stop offset="0" stop-color="#005ba1"/><stop offset="1" stop-color="#0078d4"/></linearGradient><linearGradient id="b" gradientUnits="userSpaceOnUse" x1="2.077" x2="19.04" y1="2.063" y2="19.026"><stop offset="0" stop-color="#005ba1"/><stop offset="1" stop-color="#003067"/></linearGradient><linearGradient id="c" gradientUnits="userSpaceOnUse" x1="2.069" x2="19.024" y1="15.917" y2="-1.038"><stop offset="0" stop-color="#0078d4"/><stop offset="1" stop-color="#5ea0ef"/></linearGradient><linearGradient id="d" gradientUnits="userSpaceOnUse" x1="-1.04" x2="15.923" y1="-1.026" y2="15.937"><stop offset="0" stop-color="#83b9f9"/><stop offset="1" stop-color="#5ea0ef"/></linearGradient><radialGradient id="e" cx="7.495" cy="7.696" gradientUnits="userSpaceOnUse" r="5.405"><stop offset=".131" stop-color="#a67af4"/><stop offset=".452" stop-color="#a478f1"/><stop offset=".602" stop-color="#9d72ea"/><stop offset=".717" stop-color="#9167dd"/><stop offset=".814" stop-color="#8158cb"/><stop offset=".898" stop-color="#6c45b3"/><stop offset=".97" stop-color="#552f99"/></radialGradient><circle cx="9.056" cy="9" fill="url(#e)" r="3.49"/><path d="m6.198 12.877 1.404 1.403-.001-3.868h-3.868l1.404 1.404-3.719 3.719-1.404-1.403.002 3.868h3.868l-1.404-1.404z" fill="url(#a)"/><path d="m18 17.984v-3.868l-1.404 1.404-3.719-3.718 1.403-1.404-3.868.001v3.868l1.404-1.404 3.719 3.719-1.403 1.404z" fill="url(#b)"/><path d="m16.582 2.465 1.404 1.403-.002-3.868h-3.868l1.404 1.404-3.718 3.719-1.404-1.403.001 3.868h3.868l-1.404-1.404z" fill="url(#c)"/><path d="m7.588 7.601v-3.868l-1.404 1.404-3.719-3.719 1.403-1.404-3.868.002v3.868l1.404-1.404 3.719 3.718-1.403 1.404z" fill="url(#d)"/></svg>

<svg xmlns="http://www.w3.org/2000/svg" width="18" height="18" viewBox="0 0 18 18"><linearGradient id="b" x1="-1.024" x2="15.931" y1="19.038" y2="2.083" gradientUnits="userSpaceOnUse"><stop offset="0" stop-color="#005ba1"/><stop offset="1" stop-color="#0078d4"/></linearGradient><linearGradient id="c" x1="2.077" x2="19.04" y1="2.063" y2="19.026" gradientUnits="userSpaceOnUse"><stop offset="0" stop-color="#005ba1"/><stop offset="1" stop-color="#003067"/></linearGradient><linearGradient id="d" x1="2.069" x2="19.024" y1="15.917" y2="-1.038" gradientUnits="userSpaceOnUse"><stop offset="0" stop-color="#0078d4"/><stop offset="1" stop-color="#5ea0ef"/></linearGradient><linearGradient id="e" x1="-1.04" x2="15.923" y1="-1.026" y2="15.937" gradientUnits="userSpaceOnUse"><stop offset="0" stop-color="#83b9f9"/><stop offset="1" stop-color="#5ea0ef"/></linearGradient><radialGradient id="a" cx="7.495" cy="7.696" r="5.405" gradientUnits="userSpaceOnUse"><stop offset=".131" stop-color="#a67af4"/><stop offset=".452" stop-color="#a478f1"/><stop offset=".602" stop-color="#9d72ea"/><stop offset=".717" stop-color="#9167dd"/><stop offset=".814" stop-color="#8158cb"/><stop offset=".898" stop-color="#6c45b3"/><stop offset=".97" stop-color="#552f99"/></radialGradient><circle cx="9.056" cy="9" r="3.49" fill="url(#a)"/><path fill="url(#b)" d="m6.198 12.877 1.404 1.403-.001-3.868H3.733l1.404 1.404-3.719 3.719-1.404-1.403L.016 18h3.868L2.48 16.596z"/><path fill="url(#c)" d="M18 17.984v-3.868l-1.404 1.404-3.719-3.718 1.403-1.404-3.868.001v3.868l1.404-1.404 3.719 3.719-1.403 1.404z"/><path fill="url(#d)" d="m16.582 2.465 1.404 1.403L17.984 0h-3.868l1.404 1.404-3.718 3.719-1.404-1.403.001 3.868h3.868l-1.404-1.404z"/><path fill="url(#e)" d="M7.588 7.601V3.733L6.184 5.137 2.465 1.418 3.868.014 0 .016v3.868L1.404 2.48l3.719 3.718L3.72 7.602z"/></svg>
